apps/statesvisited/state-images/VA.svg

<svg height="635" width="1182" xmlns="http://www.w3.org/2000/svg"><path d="m847.39822 296.33642c.297-2.67269-1.7818-1.48483-3.8605-3.86056-2.0788-2.37573-4.1576-6.23629-5.3454-8.61202-1.1879-2.37573-.8909-8.61202-3.2666-11.87864-2.3758-3.26663-11.5817-4.75146-13.6605-8.01809s.5939-8.01808-1.7818-10.98775c-2.3757-2.96966-6.8302-5.93932-9.2059-6.23629-2.3758-.29696-1.1879 1.7818-3.8606 2.37573-2.6727.59394-9.2059.8909-9.2059.8909s-2.3758 6.83022-3.2667 8.01809c-.8909 1.18786-2.3757 1.7818-4.1575 4.15752-1.7818 2.37573 1.1879 3.26663-1.4848 5.34539-2.6727 2.07877-7.4242 3.26663-7.4242 3.26663s-4.7514 5.93933-6.2363 9.79989c-1.4848 3.86055-3.5636 6.23628-3.8605 8.01808-.297 1.7818 2.9696 2.07876-.297 3.56359-3.2666 1.48484-9.206 6.53326-12.4726 6.83023-3.2666.29696-9.2059 1.48483-10.3938 1.18786s-1.7818-2.67269-1.7818-2.67269-2.6727-.29697-4.7514 2.07876c-2.0788 2.37573-3.2667 5.04842-4.4545 5.34539-1.1879.29696-3.5636 7.42415-5.9394 8.01808-2.3757.59394-7.7211 5.64236-7.7211 5.64236s14.5514-2.96966 16.6301-2.96966c2.0788 0 15.4423-1.18786 20.4907-1.7818 5.0484-.59393 14.2544-1.78179 19.3028-2.37573 5.0484-.59393 32.6663-6.23629 34.745-6.53325 2.0788-.29697 33.8542-8.61202 33.2602-8.61202z" fill="#3caea3" fill-rule="evenodd" opacity=".9" stroke="#000"/></svg>

<?xml version="1.0" encoding="UTF-8" standalone="no"?>
<!-- Created with Inkscape (http://www.inkscape.org/) -->
<svg
   xmlns:dc="http://purl.org/dc/elements/1.1/"
   xmlns:cc="http://web.resource.org/cc/"
   xmlns:rdf="http://www.w3.org/1999/02/22-rdf-syntax-ns#"
   xmlns:svg="http://www.w3.org/2000/svg"
   xmlns="http://www.w3.org/2000/svg"
   xmlns:xlink="http://www.w3.org/1999/xlink"
   xmlns:sodipodi="http://sodipodi.sourceforge.net/DTD/sodipodi-0.dtd"
   xmlns:inkscape="http://www.inkscape.org/namespaces/inkscape"
   id="svg1923"
   sodipodi:version="0.32"
   inkscape:version="0.44"
   width="1182"
   height="635"
   version="1.0"
   sodipodi:docbase="/Users/amyshore/Desktop"
   sodipodi:docname="usa.svg">
  <metadata
     id="metadata1928">
    <rdf:RDF>
      <cc:Work
         rdf:about="">
        <dc:format>image/svg+xml</dc:format>
        <dc:type
           rdf:resource="http://purl.org/dc/dcmitype/StillImage" />
      </cc:Work>
    </rdf:RDF>
  </metadata>
  <defs
     id="defs1926" />
  <sodipodi:namedview
     inkscape:window-height="752"
     inkscape:window-width="1280"
     inkscape:pageshadow="2"
     inkscape:pageopacity="0.0"
     guidetolerance="10.0"
     gridtolerance="10.0"
     objecttolerance="10.0"
     borderopacity="1.0"
     bordercolor="#666666"
     pagecolor="#ffffff"
     id="base"
     inkscape:zoom="0.59527559"
     inkscape:cx="775.234"
     inkscape:cy="319.32597"
     inkscape:window-x="0"
     inkscape:window-y="22"
     inkscape:current-layer="layer2" />
  <g
     inkscape:groupmode="layer"
     id="layer1"
     inkscape:label="bg"
     style="opacity:1;display:none"
     sodipodi:insensitive="true">
    <image
       xlink:href="ElectoralCollege1996-Large.png"
       sodipodi:absref="/Users/amyshore/Desktop/ElectoralCollege1996-Large.png"
       width="1182"
       height="635"
       id="image1930"
       x="-1.3571358"
       y="1.6798911" />
  </g>
  <g
     inkscape:groupmode="layer"
     id="layer2"
     inkscape:label="vector"
     style="opacity:0.9;display:inline"> <path style="fill:#3caea3;fill-opacity:1;fill-rule:evenodd;stroke:black;stroke-width:1px;stroke-linecap:butt;stroke-linejoin:miter;stroke-opacity:1" d="M 847.39822,296.33642 C 847.69522,293.66373 845.61642,294.85159 843.53772,292.47586 C 841.45892,290.10013 839.38012,286.23957 838.19232,283.86384 C 837.00442,281.48811 837.30142,275.25182 834.92572,271.9852 C 832.54992,268.71857 823.34402,267.23374 821.26522,263.96711 C 819.18642,260.70048 821.85912,255.94903 819.48342,252.97936 C 817.10772,250.0097 812.65322,247.04004 810.27752,246.74307 C 807.90172,246.44611 809.08962,248.52487 806.41692,249.1188 C 803.74422,249.71274 797.21102,250.0097 797.21102,250.0097 C 797.21102,250.0097 794.83522,256.83992 793.94432,258.02779 C 793.05342,259.21565 791.56862,259.80959 789.78682,262.18531 C 788.00502,264.56104 790.97472,265.45194 788.30202,267.5307 C 785.62932,269.60947 780.87782,270.79733 780.87782,270.79733 C 780.87782,270.79733 776.12642,276.73666 774.64152,280.59722 C 773.15672,284.45777 771.07792,286.8335 770.78102,288.6153 C 770.48402,290.3971 773.75062,290.69406 770.48402,292.17889 C 767.21742,293.66373 761.27802,298.71215 758.01142,299.00912 C 754.74482,299.30608 748.80552,300.49395 747.61762,300.19698 C 746.42972,299.90001 745.83582,297.52429 745.83582,297.52429 C 745.83582,297.52429 743.16312,297.22732 741.08442,299.60305 C 739.00562,301.97878 737.81772,304.65147 736.62992,304.94844 C 735.44202,305.2454 733.06632,312.37259 730.69052,312.96652 C 728.31482,313.56046 722.96942,318.60888 722.96942,318.60888 C 722.96942,318.60888 737.52082,315.63922 739.59952,315.63922 C 741.67832,315.63922 755.04182,314.45136 760.09022,313.85742 C 765.13862,313.26349 774.34462,312.07563 779.39302,311.48169 C 784.44142,310.88776 812.05932,305.2454 814.13802,304.94844 C 816.21682,304.65147 847.99222,296.33642 847.39822,296.33642 z " id="path8143" />   </g>
</svg>
